X:1
T:Doon Reel [1], The
T:Callaghan's
M:C|
L:1/8
R:Reel
H:Also played in G, #388
Z:id:hn-reel-786
Z:transcribed by henrik.norbeck@mailbox.swipnet.se
K:D
~F3A GEEG|FDDF ABAG|~F3A GEEG|1 AFGE FDDE:|2 AFGE FD~D2||
|:Adde dcAB|AGFG ABcA|d2de dcAB|=cBAF G2FG|
Adde dcAB|AGFG ABcA|d2fd Adfd|d2fd e^cAG||
